X:1
T:Title
%%score ( 1 2 3 ) { 4 | 5 }
L:1/8
M:4/4
K:Ab
V:1 treble nm="Grand Piano, Staff"
V:2 treble 
V:3 treble 
V:4 bass nm="Choir Pad, Purpose, Martin F. Shaw"
V:5 bass 
V:1
 z2 .G2 z2 .G2 | z4[K:bass] z2[K:treble] .E2 | AA G2 FF [B,DE]2 | F6- FF | [A,CF]2 GG [CEA]2 GG | %5
 [A,CF]2 GE[K:bass] [F,A,C]2 E[K:treble]E | F2- [B,DF-G]2 [CEFA]2 BB | [CEAc]8 | %8
 [C=EG]2 AB [EGc]2 [=DFB]2 | [=EG]G [=DF]2 [EG]2 [CDAc]2 | E2- [E-A][E-A] [G,EG]2[K:bass] [F,DF]2 | %11
 B,2 z2 z4[K:treble] | =D2 =EE [A,F]2 GG | [A,CFA]2 BB [EFce]2 dd | [CAc]2 [FB]2 AF [G,DG]2 | %15
 [CF]8 | [A,CF]2 GG [CEA]2 GG | [A,CF]2[K:bass] [G,B,E]2 [F,A,C]2[K:treble] EE | AA G2 FF [B,DE]2 | %19
 F6- FF | [A,CF]2 GG [CEA]2 GG | [A,CF]2 GE[K:bass] [F,A,C]2 E[K:treble]E | %22
 F2- [B,DF-G]2 [CEFA]2 BB | [CEAc]8 | [C=EG]2 AB [EGc]2 [=DFB]2 | [=EG]G [=DF]2 [EG]2 [CDAc]2 | %26
 E2- [E-A][E-A] [G,EG]2[K:bass] [F,DF]2 | B,2 z2 z4[K:treble] | =D2 =EE [A,F]2 GG | %29
 [A,CFA]2 BB [EFce]2 dd | [CAc]2 [FB]2 AF [G,DG]2 | [CF]8 | [A,CF]2 GG [CEA]2 GG | %33
 [A,CF]2[K:bass] [G,B,E]2 [F,A,C]2[K:treble] EE | AA G2 FF [B,DE]2 | F6- FF | %36
 [A,CF]2 GG [CEA]2 GG | [A,CF]2 GE[K:bass] [F,A,C]2 E[K:treble]E | F2- [B,DF-G]2 [CEFA]2 BB | %39
 [CEAc]8 | [C=EG]2 AB [EGc]2 [=DFB]2 | [=EG]G [=DF]2 [EG]2 [CDAc]2 | %42
 E2- [E-A][E-A] [G,EG]2[K:bass] [F,DF]2 | B,2 z2 z4[K:treble] | =D2 =EE [A,F]2 GG | %45
 [A,CFA]2 BB [EFce]2 dd | [CAc]2 [FB]2 AF [G,DG]2 | [CF]8 | [A,CF]2 GG [CEA]2 GG | %49
 [A,CF]2[K:bass] [G,B,E]2 [F,A,C]2[K:treble] EE | AA G2 FF [B,DE]2 | F6- FF | %52
 [A,CF]2 GG [CEA]2 GG | [A,CF]2 GE[K:bass] [F,A,C]2 E[K:treble]E | F2- [B,DF-G]2 [CEFA]2 BB | %55
 [CEAc]8 | [C=EG]2 AB [EGc]2 [=DFB]2 | [=EG]G [=DF]2 [EG]2 [CDAc]2 | %58
 E2- [E-A][E-A] [G,EG]2[K:bass] [F,DF]2 | B,2 z2 z4[K:treble] | =D2 =EE [A,F]2 GG | %61
 [A,CFA]2 BB [EFce]2 dd | [CAc]2 [FB]2 AF [G,DG]2 | F2- [G,B,EFG]2 F2- [B,FGB]2 | [CF=Ac]8 |] %65
V:2
 [A,CF]2 [B,D]-[B,DG] [CEA]2 [B,D]-[B,DG] | %1
 [A,CF]2[K:bass] [G,B,E]2 [F,A,C]2[K:treble] [G,B,]-[G,B,E] | [A,C]6 z2 | [A,C]6 [B,D]2 | %4
 z2 [B,D]2 z2 [B,D]2 | z2 [G,B,]2[K:bass] z2 [G,B,]2[K:treble] | [A,CA]2 z2 z2 [B,DG]2 | x8 | %8
 z2 [=DF]2 z4 | C6 z2 | [B,B]2 A,2 z4[K:bass] | C2- [F,A,C-]2 [=E,G,C]2 C[K:treble]C | C8 | %13
 z2 [B,E]2 z2 [DG]2 | z4 [A,E]2 z2 | A,2- [A,B,]2 A,4 | z2 [B,D]2 z2 [B,D]2 | %17
 z4[K:bass] z2[K:treble] [G,B,]2 | [A,C]6 z2 | [A,C]6 [B,D]2 | z2 [B,D]2 z2 [B,D]2 | %21
 z2 [G,B,]2[K:bass] z2 [G,B,]2[K:treble] | [A,CA]2 z2 z2 [B,DG]2 | x8 | z2 [=DF]2 z4 | C6 z2 | %26
 [B,B]2 A,2 z4[K:bass] | C2- [F,A,C-]2 [=E,G,C]2 C[K:treble]C | C8 | z2 [B,E]2 z2 [DG]2 | %30
 z4 [A,E]2 z2 | A,2- [A,B,]2 A,4 | z2 [B,D]2 z2 [B,D]2 | z4[K:bass] z2[K:treble] [G,B,]2 | %34
 [A,C]6 z2 | [A,C]6 [B,D]2 | z2 [B,D]2 z2 [B,D]2 | z2 [G,B,]2[K:bass] z2 [G,B,]2[K:treble] | %38
 [A,CA]2 z2 z2 [B,DG]2 | x8 | z2 [=DF]2 z4 | C6 z2 | [B,B]2 A,2 z4[K:bass] | %43
 C2- [F,A,C-]2 [=E,G,C]2 C[K:treble]C | C8 | z2 [B,E]2 z2 [DG]2 | z4 [A,E]2 z2 | A,2- [A,B,]2 A,4 | %48
 z2 [B,D]2 z2 [B,D]2 | z4[K:bass] z2[K:treble] [G,B,]2 | [A,C]6 z2 | [A,C]6 [B,D]2 | %52
 z2 [B,D]2 z2 [B,D]2 | z2 [G,B,]2[K:bass] z2 [G,B,]2[K:treble] | [A,CA]2 z2 z2 [B,DG]2 | x8 | %56
 z2 [=DF]2 z4 | C6 z2 | [B,B]2 A,2 z4[K:bass] | C2- [F,A,C-]2 [=E,G,C]2 C[K:treble]C | C8 | %61
 z2 [B,E]2 z2 [DG]2 | z4 [A,E]2 z2 | [F,C]2 z2 [A,CA]2 z2 | x8 |] %65
V:3
 x8 | x2[K:bass] x4[K:treble] x2 | x8 | x8 | x8 | x4[K:bass] x3[K:treble] x | x8 | x8 | x8 | x8 | %10
 x6[K:bass] x2 | x7[K:treble] x | z2 B,2 z2 G,2 | x8 | x8 | x8 | x8 | x2[K:bass] x4[K:treble] x2 | %18
 x8 | x8 | x8 | x4[K:bass] x3[K:treble] x | x8 | x8 | x8 | x8 | x6[K:bass] x2 | x7[K:treble] x | %28
 z2 B,2 z2 G,2 | x8 | x8 | x8 | x8 | x2[K:bass] x4[K:treble] x2 | x8 | x8 | x8 | %37
 x4[K:bass] x3[K:treble] x | x8 | x8 | x8 | x8 | x6[K:bass] x2 | x7[K:treble] x | z2 B,2 z2 G,2 | %45
 x8 | x8 | x8 | x8 | x2[K:bass] x4[K:treble] x2 | x8 | x8 | x8 | x4[K:bass] x3[K:treble] x | x8 | %55
 x8 | x8 | x8 | x6[K:bass] x2 | x7[K:treble] x | z2 B,2 z2 G,2 | x8 | x8 | x8 | x8 |] %65
V:4
 D,8 | F,,2 G,,2 A,,2 G,,2 | F,,2 E,,2 C,,2 E,,2 | A,,2 G,,2 F,,2 E,,2 | F,,8 | %5
 F,,2 G,,2 A,,2 G,,2 | F,,2 E,,2 C,,2 E,,2 | A,,2 G,,2 A,,2 B,,2 | C,4 G,,2 A,,B,, | %9
 C,2 B,,2 G,,2 F,,2 | G,,2 C,2 B,,2 A,,2 | C,6 z2 | z8 | z8 | z8 | z8 | z8 | z8 | z8 | z8 | z8 | %21
 z8 | z8 | z8 | z8 | z8 | z8 | C,6 z2 | z8 | z8 | z8 | z8 | z8 | z8 | z8 | z8 | z8 | z8 | z8 | z8 | %40
 z8 | z8 | z8 | C,6 z2 | z8 | z8 | z8 | z8 | z8 | z8 | z8 | z8 | z8 | z8 | z8 | z8 | z8 | z8 | z8 | %59
 C,6 z2 | z8 | z8 | z8 | z8 | [F,=A,]8 |] %65
V:5
 z8 | z8 | z8 | z8 | z8 | z8 | z8 | z8 | z8 | z8 | z8 | G,,2 F,,2 C,,2 z2 | z2 C,,2 =D,,2 =E,,2 | %13
 F,,2 G,,2 A,,2 B,,2 | E,2 D,2 C,2 B,,2 | A,,2 G,,2 F,,4 | D,8 | F,,2 G,,2 A,,2 G,,2 | %18
 F,,2 E,,2 C,,2 E,,2 | A,,2 G,,2 F,,2 E,,2 | F,,8 | F,,2 G,,2 A,,2 G,,2 | F,,2 E,,2 C,,2 E,,2 | %23
 A,,2 G,,2 A,,2 B,,2 | C,4 G,,2 A,,B,, | C,2 B,,2 G,,2 F,,2 | G,,2 C,2 B,,2 A,,2 | %27
 G,,2 F,,2 C,,2 z2 | z2 C,,2 =D,,2 =E,,2 | F,,2 G,,2 A,,2 B,,2 | E,2 D,2 C,2 B,,2 | %31
 A,,2 G,,2 F,,4 | D,8 | F,,2 G,,2 A,,2 G,,2 | F,,2 E,,2 C,,2 E,,2 | A,,2 G,,2 F,,2 E,,2 | F,,8 | %37
 F,,2 G,,2 A,,2 G,,2 | F,,2 E,,2 C,,2 E,,2 | A,,2 G,,2 A,,2 B,,2 | C,4 G,,2 A,,B,, | %41
 C,2 B,,2 G,,2 F,,2 | G,,2 C,2 B,,2 A,,2 | G,,2 F,,2 C,,2 z2 | z2 C,,2 =D,,2 =E,,2 | %45
 F,,2 G,,2 A,,2 B,,2 | E,2 D,2 C,2 B,,2 | A,,2 G,,2 F,,4 | D,8 | F,,2 G,,2 A,,2 G,,2 | %50
 F,,2 E,,2 C,,2 E,,2 | A,,2 G,,2 F,,2 E,,2 | F,,8 | F,,2 G,,2 A,,2 G,,2 | F,,2 E,,2 C,,2 E,,2 | %55
 A,,2 G,,2 A,,2 B,,2 | C,4 G,,2 A,,B,, | C,2 B,,2 G,,2 F,,2 | G,,2 C,2 B,,2 A,,2 | %59
 G,,2 F,,2 C,,2 z2 | z2 C,,2 =D,,2 =E,,2 | F,,2 G,,2 A,,2 B,,2 | E,2 D,2 C,2 B,,2 | %63
 A,,2 G,,2 F,,E,, D,,2 | F,,8 |] %65

